fs/call_outbound_16_filled.svg

<svg viewBox="0 0 16 16" fill="none" xmlns="http://www.w3.org/2000/svg" height="1em" width="1em">
  <path d="M10.5002 2C10.2241 2 10.0002 2.22386 10.0002 2.5C10.0002 2.77614 10.2241 3 10.5002 3H12.2932L9.14669 6.14655C8.95143 6.34181 8.95143 6.6584 9.1467 6.85366C9.34196 7.04892 9.65854 7.04891 9.8538 6.85365L13.0002 3.70713V5.5C13.0002 5.77614 13.2241 6 13.5002 6C13.7764 6 14.0002 5.77614 14.0002 5.5V2.5C14.0002 2.22386 13.7764 2 13.5002 2H10.5002ZM6.57033 3.00577C6.17963 2.18481 5.22535 1.79977 4.37432 2.11971L4.11117 2.21865C2.76081 2.7263 1.80275 4.04962 2.04007 5.55514C2.24817 6.87523 2.68742 8.6291 3.62827 10.1058C4.47771 11.439 5.60617 12.5374 6.54598 13.3186C7.80091 14.3617 9.55463 14.1347 10.6806 13.0718L10.9766 12.7924C11.6832 12.1254 11.7111 11.0106 11.0389 10.309L10.2635 9.49986C9.88743 9.1074 9.32846 8.9491 8.80245 9.08609L6.92479 9.57508C6.87675 9.53067 6.82111 9.47722 6.76044 9.41533C6.55273 9.20345 6.29324 8.89998 6.0766 8.52906C5.85799 8.15477 5.71754 7.78342 5.63193 7.50411C5.60738 7.42401 5.58755 7.35215 5.57181 7.29078L6.88829 5.85419C7.30109 5.40372 7.39941 4.74789 7.13685 4.19618L6.57033 3.00577Z" fill="#212121"/>
</svg>

<svg viewBox="0 0 16 16" fill="none" xmlns="http://www.w3.org/2000/svg" height="1em" width="1em">
  <path d="M10.5 2a.5.5 0 0 0 0 1h1.793L9.147 6.147a.5.5 0 1 0 .707.707L13 3.707V5.5a.5.5 0 0 0 1 0v-3a.5.5 0 0 0-.5-.5h-3ZM6.57 3.006a1.75 1.75 0 0 0-2.196-.886l-.263.099c-1.35.507-2.308 1.83-2.07 3.336.207 1.32.646 3.074 1.587 4.55.85 1.334 1.978 2.432 2.918 3.214 1.255 1.043 3.009.816 4.135-.247l.296-.28a1.75 1.75 0 0 0 .062-2.483l-.775-.81a1.5 1.5 0 0 0-1.462-.413l-1.877.49a4.618 4.618 0 0 1-.848-1.046 4.913 4.913 0 0 1-.505-1.24l1.316-1.436a1.5 1.5 0 0 0 .249-1.658l-.567-1.19Z" fill="#212121"/>
</svg>
